packages/icons/src/brands/facebook-alt.svg

<svg aria-label="facebook logo" viewBox="0 0 12 20" xmlns="http://www.w3.org/2000/svg">
<path d="M3.83125 20V11.25H0.65625V7.625H3.83125V4.8625C3.83125 1.725 5.69375 0 8.55625 0C9.91875 0 11.3438 0.2375 11.3438 0.2375V3.325H9.76875C8.21875 3.325 7.73125 4.2875 7.73125 5.275V7.625H11.2063L10.6438 11.25H7.73125V20H3.83125Z" />
</svg>

<svg xmlns="http://www.w3.org/2000/svg" aria-label="facebook logo" viewBox="-4 0 20 20"><path d="M3.831 20v-8.75H.656V7.625h3.175V4.862C3.831 1.725 5.694 0 8.556 0c1.363 0 2.788.237 2.788.237v3.088H9.769c-1.55 0-2.038.962-2.038 1.95v2.35h3.475l-.562 3.625H7.73V20h-3.9z"/></svg>
